build/assets/images/proyectos/logos/logo-sm.svg

<svg width="200" height="200" viewBox="0 0 200 200" fill="none" xmlns="http://www.w3.org/2000/svg">
<rect width="200" height="200" fill="white"/>
<path d="M23.6193 134.001C23.2764 133.924 22.8955 133.848 22.5526 133.734C21.1431 133.239 20.1526 131.944 20.0764 130.458C20.0764 130.267 20.0764 130.077 20.0764 129.886C20.0764 115.867 20.0764 101.81 20.0764 87.7912C20.0764 85.2007 20.9907 82.9912 22.8193 81.1245C26.8955 77.0483 30.9717 72.934 35.0859 68.8959C36.8764 67.1054 39.0478 66.2292 41.6002 66.2292C44.3431 66.2292 47.0478 66.2292 49.7907 66.2292C61.2193 66.2292 72.6478 66.2292 84.0383 66.2292C86.2478 66.2292 87.8478 67.8292 87.8478 70.0388C87.8478 84.1721 87.8478 98.3435 87.8478 112.477C87.8478 114.953 86.9336 117.124 85.1812 118.915C81.1431 122.953 77.105 126.991 73.0669 131.067C71.3145 132.82 69.1812 133.81 66.705 133.886C66.6288 133.886 66.5526 133.924 66.4764 133.963C52.1526 134.001 37.905 134.001 23.6193 134.001ZM45.8288 120.401C46.0193 120.248 46.0955 120.134 46.1717 120.058C50.5145 115.715 54.8955 111.334 59.2383 106.991C61.4478 104.782 63.6574 102.572 65.8669 100.363C66.0955 100.134 66.1336 100.02 65.8669 99.7912C59.2764 93.2007 52.6859 86.6102 46.0574 80.0578C45.9812 79.9816 45.905 79.9054 45.7907 79.7912C45.8288 93.3531 45.8288 106.839 45.8288 120.401Z" fill="black"/>
<path d="M179.886 117.619C177.219 117.619 174.552 117.619 171.886 117.619C171.733 117.619 171.581 117.619 171.429 117.619C171.429 117.467 171.429 117.314 171.429 117.2C171.429 111.371 171.429 105.543 171.429 99.7143C171.429 98.7619 171.314 97.8476 170.857 97.0095C170.057 95.5238 168.762 94.8381 167.124 94.7619C165.029 94.6857 163.352 95.5619 161.829 96.8952C161.295 97.3524 161.105 97.8095 161.105 98.4952C161.143 104.705 161.105 110.914 161.105 117.124C161.105 117.276 161.105 117.429 161.105 117.581C160.952 117.581 160.838 117.581 160.724 117.581C158.133 117.581 155.581 117.581 152.99 117.581C152.686 117.581 152.571 117.505 152.571 117.162C152.571 111.257 152.571 105.314 152.571 99.4095C152.571 98.3429 152.343 97.3524 151.733 96.5143C150.895 95.3333 149.714 94.8 148.267 94.7238C146.362 94.6476 144.724 95.4095 143.314 96.5905C142.819 97.0095 142.362 97.5048 141.943 97.9619C141.829 98.1143 141.714 98.3428 141.714 98.5333C141.714 104.705 141.714 110.876 141.714 117.048C141.714 117.2 141.714 117.314 141.714 117.505C138.857 117.505 136.038 117.505 133.181 117.505C133.181 107.714 133.181 97.9619 133.181 88.1714C135.695 88.1714 138.171 88.1714 140.724 88.1714C140.724 89.2762 140.724 90.3429 140.724 91.4857C141.181 91.0667 141.6 90.6476 142.019 90.2667C145.257 87.6381 148.914 86.7619 152.99 87.6C155.467 88.1333 157.448 89.3905 158.933 91.4476C158.971 91.4857 158.971 91.5238 159.009 91.5619C159.009 91.5619 159.009 91.5619 159.048 91.6C159.467 91.2571 159.886 90.8762 160.305 90.4952C162.133 89.0095 164.19 87.9429 166.514 87.5238C169.486 86.9905 172.343 87.2952 174.933 88.8952C177.067 90.2286 178.4 92.1714 179.086 94.5333C179.39 95.4857 179.505 96.4762 179.695 97.4667C179.695 97.5429 179.733 97.619 179.771 97.7333C179.886 104.438 179.886 111.029 179.886 117.619Z" fill="black"/>
<path d="M128.114 96.819C127.086 96.3238 126.133 95.7905 125.143 95.4095C122.552 94.3809 119.886 93.8095 117.105 93.9619C116.305 94 115.543 94.1524 114.857 94.5333C113.6 95.2571 113.41 96.6286 114.438 97.6571C115.124 98.3429 116.038 98.7238 116.952 99.0286C118.552 99.5619 120.152 100.019 121.752 100.514C123.619 101.086 125.448 101.771 127.048 102.952C129.219 104.514 130.324 106.648 130.362 109.314C130.362 110.99 130.057 112.552 129.143 114C128.152 115.524 126.781 116.476 125.143 117.162C123.467 117.886 121.676 118.267 119.848 118.381C118.286 118.457 116.724 118.533 115.2 118.457C111.886 118.305 108.686 117.581 105.714 116.019C105.41 115.867 105.295 115.676 105.295 115.333C105.295 113.276 105.295 111.219 105.295 109.124C105.295 109.01 105.295 108.895 105.295 108.743C105.41 108.781 105.486 108.819 105.524 108.857C107.657 110.19 110.019 110.952 112.457 111.448C114.286 111.79 116.114 111.943 117.981 111.79C118.781 111.714 119.619 111.638 120.381 111.295C121.791 110.686 122.057 109.276 120.914 108.248C120.305 107.676 119.581 107.333 118.781 107.067C116.991 106.457 115.162 105.924 113.372 105.314C111.581 104.705 109.791 104.019 108.267 102.876C105.867 101.124 104.876 98.7619 105.067 95.8667C105.181 93.9238 105.791 92.2095 107.162 90.8C108.267 89.619 109.638 88.8571 111.162 88.3619C113.257 87.6381 115.429 87.4095 117.638 87.4476C121.181 87.4857 124.572 88.2857 127.81 89.7714C128.114 89.9238 128.229 90.0762 128.229 90.419C128.191 92.4762 128.229 94.5333 128.229 96.5905C128.114 96.5905 128.114 96.7048 128.114 96.819Z" fill="black"/>
</svg>

<svg width="200" height="200" fill="none" xmlns="http://www.w3.org/2000/svg"><path fill="#fff" d="M0 0h200v200H0z"/><path d="M23.62 134.001c-.344-.077-.725-.153-1.067-.267-1.41-.495-2.4-1.79-2.477-3.276V87.791c0-2.59.915-4.8 2.743-6.666 4.076-4.077 8.153-8.191 12.267-12.23 1.79-1.79 3.962-2.666 6.514-2.666h42.438c2.21 0 3.81 1.6 3.81 3.81v42.438c0 2.476-.914 4.647-2.667 6.438-4.038 4.038-8.076 8.076-12.114 12.152-1.752 1.753-3.886 2.743-6.362 2.819a.53.53 0 00-.229.077c-14.323.038-28.571.038-42.857.038zm22.209-13.6c.19-.153.267-.267.343-.343l13.066-13.067 6.629-6.628c.228-.229.267-.343 0-.572-6.59-6.59-13.181-13.18-19.81-19.733l-.266-.267c.038 13.562.038 27.048.038 40.61zm134.057-2.782h-8.457V99.714c0-.952-.115-1.866-.572-2.704-.8-1.486-2.095-2.172-3.733-2.248-2.095-.076-3.772.8-5.295 2.133-.534.457-.724.915-.724 1.6.038 6.21 0 12.419 0 18.629v.457h-8.115c-.304 0-.419-.076-.419-.419V99.409c0-1.066-.228-2.057-.838-2.895-.838-1.18-2.019-1.714-3.466-1.79-1.905-.076-3.543.685-4.953 1.867-.495.419-.952.914-1.371 1.37-.114.153-.229.382-.229.572v18.972h-8.533V88.171h7.543v3.315c.457-.42.876-.838 1.295-1.22 3.238-2.628 6.895-3.504 10.971-2.666 2.477.533 4.458 1.79 5.943 3.848.038.038.038.076.076.114l.039.038c.419-.343.838-.724 1.257-1.105 1.828-1.486 3.885-2.552 6.209-2.971 2.972-.534 5.829-.229 8.419 1.371 2.134 1.334 3.467 3.276 4.153 5.638.304.953.419 1.943.609 2.934 0 .076.038.152.076.266.115 6.705.115 13.296.115 19.886zm-51.772-20.8c-1.028-.495-1.981-1.029-2.971-1.41-2.591-1.028-5.257-1.6-8.038-1.447-.8.038-1.562.19-2.248.571-1.257.724-1.447 2.096-.419 3.124.686.686 1.6 1.067 2.514 1.372 1.6.533 3.2.99 4.8 1.485 1.867.572 3.696 1.257 5.296 2.438 2.171 1.562 3.276 3.696 3.314 6.362 0 1.676-.305 3.238-1.219 4.686-.991 1.524-2.362 2.476-4 3.162-1.676.724-3.467 1.105-5.295 1.219-1.562.076-3.124.152-4.648.076-3.314-.152-6.514-.876-9.486-2.438-.304-.152-.419-.343-.419-.686v-6.59a.617.617 0 01.229.114c2.133 1.333 4.495 2.095 6.933 2.591 1.829.342 3.657.495 5.524.342.8-.076 1.638-.152 2.4-.495 1.41-.609 1.676-2.019.533-3.047-.609-.572-1.333-.915-2.133-1.181-1.79-.61-3.619-1.143-5.409-1.753-1.791-.609-3.581-1.295-5.105-2.438-2.4-1.752-3.391-4.114-3.2-7.01.114-1.942.724-3.656 2.095-5.066 1.105-1.181 2.476-1.943 4-2.438 2.095-.724 4.267-.953 6.476-.914 3.543.038 6.934.838 10.172 2.323.304.153.419.305.419.648-.038 2.057 0 4.114 0 6.172-.115 0-.115.114-.115.228z" fill="#000"/></svg>
